X:23
T:Polska ur Petter Dufvas notbok (Ma6-23)
R:Polska
O:Verkelbäck, Småland
B:Petter Dufvas notbok
S:Petter Dufva
N:Smus Ma6 bild 25
M:3/4
L:1/8
K:G
[gBG,]2 ag/f/ gd|dc/B/ cB/A/ BG|DG B^c df|ed/^c/ d2D2:|
|:dc Bc dg|dc/B/ cB/A/ BG|BcdDGB|A/B/A/F/ G2 G,2:|

